Origami/48x48/apps/warmux.svg

<svg width="48" height="48" version="1" xmlns="http://www.w3.org/2000/svg">
 <rect transform="rotate(30)" x="30.74" y="-15.56" width="2" height="6" rx=".262" ry=".267" style="fill:#ffd38d"/>
 <path d="m29.036 4.8135c-0.48-0.277-1.089-0.1138-1.366 0.366l-1.36 2.3545a18 18 0 0 0 -19.898 8.466 18 18 0 0 0 6.588 24.588 18 18 0 0 0 24.588 -6.588 18 18 0 0 0 -2.619 -21.463l1.3613-2.3579c0.277-0.47978 0.11375-1.089-0.36603-1.366l-6.9282-4z" fill="#4f4f4f"/>
 <path d="m20.324219 13.000686c-0.254119-0.0018-0.485085 0.0056-0.6875 0.02344-1.904699 0.166976-4.388331 1.841065-6.494141 4.376953-2.035559 2.451302-2.622251 4.409327-1.753906 5.851562 0.977893 1.624199 2.108522 2.546257 3.6875 3.011719 1.350806 0.398195 1.755025 0.640669 2.912109 1.74414 1.867711 1.78118 2.510634 1.981497 6.4375 1.992188 1.658712 0.0045 3.65641-0.06201 4.439453-0.146484 1.157745-0.12489 1.645324-0.271998 2.601563-0.78711 2.536611-1.366435 2.946326-2.293618 2.199219-4.970703-0.233005-0.834928-0.614242-2.60012-0.845704-3.921875-0.231461-1.321757-0.522281-2.607336-0.648437-2.857422-0.561452-1.113005-2.367862-2.18502-5.480469-3.251953-1.705844-0.584727-4.588365-1.052-6.367187-1.064453zm-1.060547 5c1.394812 0.06628 1.708473 1.447767 1.701172 2.628906 0 1.667876-0.21345 2.311582-0.976563 2.949219-0.569956 0.476244-1.962124 0.573363-2.378906 0.166016-0.435509-0.425641-0.630859-1.221774-0.630859-2.574219 0-2.03678 0.816354-3.169321 2.285156-3.169922zm7.75 0c0.38795-0.0063 0.800412 0.10843 1.296875 0.341797 0.512455 0.240889 1.088026 0.629659 1.279297 0.863281 0.456189 0.557206 0.460378 1.812633 0.0098 3.208984-0.680031 2.107373-2.035358 2.955514-3.896484 2.4375-0.716176-0.199331-1.560677-1.144978-1.712891-1.919921-0.245961-1.252169 0.848227-3.901937 1.878907-4.550782 0.393787-0.247878 0.756578-0.374536 1.144531-0.380859zm-12.427734 10c-0.588792-0.0031-1.21523 0.182982-1.816407 0.5625-0.736814 0.465142-2.174709 2.083241-2.55664 2.878906-0.7227433 1.505667 0.478198 3.830519 2.279297 4.41211 0.633547 0.204576 0.643278 0.204664 1.216796-0.05859 0.681832-0.312984 1.014908-0.73437 2.197266-2.771484 0.798714-1.376112 1.012633-1.891446 1.070312-2.591797 0.06526-0.792358 0.02329-0.932242-0.439453-1.5-0.499744-0.613177-1.194153-0.927655-1.951171-0.931641zm5.068359 4c-1.455588 0-2.49246 0.976313-3.166016 2.978516-0.583786 1.735384-0.648972 3.20866-0.166015 3.724609 0.841237 0.898696 3.957554 1.624214 4.908203 1.142578 0.396847-0.201063 0.520446-0.50003 0.708984-1.71875 0.180477-1.166606-0.06971-3.771749-0.458984-4.777344-0.347142-0.896706-0.960034-1.349609-1.826172-1.349609zm6.330078 0c-0.130557-1e-3 -0.282065 0.0057-0.462891 0.01953-1.078739 0.08235-1.661053 0.450009-2.18164 1.375-0.347068 0.616654-0.380116 0.842234-0.308594 2.091797 0.08925 1.558686 0.331154 2.358737 0.751953 2.47461 0.451983 0.124454 2.481382-0.06016 3.373047-0.306641 1.096505-0.303067 1.84375-0.897942 1.84375-1.466796 0-0.607327-1.579574-3.491026-2.136719-3.900391-0.279363-0.205263-0.487233-0.283804-0.878906-0.287109z" style="opacity:.2"/>
 <path d="m20.324219 12c-0.254119-0.0018-0.485085 0.005597-0.6875 0.023438-1.904699 0.166976-4.388331 1.841065-6.494141 4.376953-2.035559 2.451302-2.622251 4.409327-1.753906 5.851562 0.977893 1.624199 2.108522 2.546257 3.6875 3.011719 1.350806 0.398195 1.755025 0.640669 2.912109 1.74414 1.867711 1.78118 2.510634 1.981497 6.4375 1.992188 1.658712 0.0045 3.65641-0.06201 4.439453-0.146484 1.157745-0.12489 1.645324-0.271998 2.601563-0.78711 2.536611-1.366435 2.946326-2.293618 2.199219-4.970703-0.233005-0.834928-0.614242-2.60012-0.845704-3.921875-0.231461-1.321757-0.522281-2.607336-0.648437-2.857422-0.561452-1.113005-2.367862-2.18502-5.480469-3.251953-1.705844-0.584727-4.588365-1.052-6.367187-1.064453zm-1.060547 5c1.394812 0.06628 1.708473 1.447767 1.701172 2.628906 0 1.667876-0.21345 2.311582-0.976563 2.949219-0.569956 0.476244-1.962124 0.573363-2.378906 0.166016-0.435509-0.425641-0.630859-1.221774-0.630859-2.574219 0-2.03678 0.816354-3.169321 2.285156-3.169922zm7.75 0c0.38795-0.0063 0.800412 0.10843 1.296875 0.341797 0.512455 0.240889 1.088026 0.629659 1.279297 0.863281 0.456189 0.557206 0.460378 1.812633 0.009765 3.208984-0.680031 2.107373-2.035358 2.955514-3.896484 2.4375-0.716176-0.199331-1.560677-1.144978-1.712891-1.919921-0.245961-1.252169 0.848227-3.901937 1.878907-4.550782 0.393787-0.247878 0.756578-0.374536 1.144531-0.380859zm-12.427734 10c-0.588792-0.0031-1.21523 0.182982-1.816407 0.5625-0.736814 0.465142-2.174709 2.083241-2.55664 2.878906-0.7227433 1.505667 0.478198 3.830519 2.279297 4.41211 0.633547 0.204576 0.643278 0.204664 1.216796-0.058594 0.681832-0.312984 1.014908-0.73437 2.197266-2.771484 0.798714-1.376112 1.012633-1.891446 1.070312-2.591797 0.06526-0.792358 0.023294-0.932242-0.439453-1.5-0.499744-0.613177-1.194153-0.927655-1.951171-0.931641zm5.068359 4c-1.455588 0-2.49246 0.976313-3.166016 2.978516-0.583786 1.735384-0.648972 3.20866-0.166015 3.724609 0.841237 0.898696 3.957554 1.624214 4.908203 1.142578 0.396847-0.201063 0.520446-0.50003 0.708984-1.71875 0.180477-1.166606-0.069708-3.771749-0.458984-4.777344-0.347142-0.896706-0.960034-1.349609-1.826172-1.349609zm6.330078 0c-0.130557-1e-3 -0.282065 0.005651-0.462891 0.019531-1.078739 0.08235-1.661053 0.450009-2.18164 1.375-0.347068 0.616654-0.380116 0.842234-0.308594 2.091797 0.08925 1.558686 0.331154 2.358737 0.751953 2.47461 0.451983 0.124454 2.481382-0.060162 3.373047-0.306641 1.096505-0.303068 1.84375-0.897943 1.84375-1.466797 0-0.607327-1.579574-3.491026-2.136719-3.900391-0.279363-0.205263-0.487233-0.283804-0.878906-0.287109z" style="fill:#cbcbcb"/>
 <path d="m20.324219 12c-0.254119-0.0018-0.485085 0.005597-0.6875 0.023438-1.904699 0.166976-4.388331 1.841065-6.494141 4.376953-1.615849 1.94587-2.303047 3.575725-2.089844 4.888671 0.172547-1.114394 0.862541-2.410704 2.089844-3.888671 2.10581-2.535888 4.589442-4.209977 6.494141-4.376953 0.202415-0.01784 0.433381-0.025238 0.6875-0.023438 1.778822 0.012453 4.661343 0.479726 6.367187 1.064453 3.112607 1.066933 4.919017 2.138948 5.480469 3.251953 0.126156 0.250086 0.416976 1.535665 0.648437 2.857422 0.231463 1.321755 0.612699 3.086947 0.845704 3.921875 0.152494 0.546428 0.243162 1.006547 0.291015 1.425781 0.107507-0.634774-0.004996-1.400897-0.291015-2.425781-0.233005-0.834928-0.614241-2.60012-0.845704-3.921875-0.231461-1.321757-0.522281-2.607336-0.648437-2.857422-0.561452-1.113005-2.367862-2.18502-5.480469-3.251953-1.705844-0.584727-4.588365-1.052-6.367187-1.064453zm9.558593 8.054688c-0.047191 0.425987-0.127436 0.876689-0.283203 1.359374-0.680031 2.107373-2.035358 2.955514-3.896484 2.4375-0.696703-0.193911-1.509252-1.093225-1.693359-1.855468-0.051777 0.349668-0.070551 0.675813-0.019532 0.935547 0.152214 0.774943 0.996715 1.72059 1.712891 1.919921 1.861126 0.518014 3.216453-0.330127 3.896484-2.4375 0.291603-0.903682 0.371795-1.7248 0.283203-2.359374zm-8.945312 0.21289c-0.060348 1.179896-0.299537 1.76769-0.949219 2.310547-0.569956 0.476244-1.962124 0.573363-2.378906 0.166016-0.368827-0.36047-0.55587-1.010841-0.607422-2.015625-0.009497 0.145241-0.023437 0.285461-0.023437 0.441406 0 1.352445 0.19535 2.148578 0.630859 2.574219 0.416782 0.407347 1.80895 0.310228 2.378906-0.166016 0.763113-0.637637 0.976563-1.281343 0.976563-2.949219 7.34e-4 -0.118771-0.020814-0.240046-0.027344-0.361328zm-6.351562 6.732422c-0.588792-0.0031-1.21523 0.182982-1.816407 0.5625-0.736814 0.465142-2.174709 2.083241-2.55664 2.878906-0.2153155 0.448559-0.243498 0.969878-0.152344 1.496094 0.035059-0.170451 0.077579-0.340338 0.152344-0.496094 0.381931-0.795665 1.819826-2.413764 2.55664-2.878906 0.601177-0.379518 1.227615-0.5656 1.816407-0.5625 0.757018 0.003986 1.451427 0.318464 1.951171 0.931641 0.22836 0.280184 0.352966 0.456584 0.414063 0.658203 0.006594-0.052818 0.020896-0.103633 0.02539-0.158203 0.06526-0.792358 0.023294-0.932242-0.439453-1.5-0.499744-0.613177-1.194154-0.927655-1.951171-0.931641zm5.068359 4c-1.455588 0-2.49246 0.976313-3.166016 2.978516-0.412769 1.227014-0.561512 2.315957-0.445312 3.035156 0.05562-0.597493 0.19201-1.282182 0.445312-2.035156 0.673556-2.002203 1.710428-2.978516 3.166016-2.978516 0.866138 0 1.47903 0.452903 1.826172 1.349609 0.256425 0.662414 0.437858 2.005324 0.490234 3.1875 0.060622-1.297003-0.153253-3.316995-0.490234-4.1875-0.347142-0.896706-0.960034-1.349609-1.826172-1.349609zm6.330078 0c-0.130557-1e-3 -0.282065 0.005651-0.462891 0.019531-1.078739 0.08235-1.661053 0.450009-2.18164 1.375-0.326093 0.579386-0.371012 0.84364-0.316406 1.90625 0.036183-0.335067 0.126497-0.56883 0.316406-0.90625 0.520587-0.924991 1.102901-1.29265 2.18164-1.375 0.180826-0.01383 0.332334-0.020531 0.462891-0.019531 0.391673 0.003305 0.599543 0.081846 0.878906 0.287109 0.454803 0.334169 1.578431 2.302021 1.980469 3.34961 0.097077-0.148137 0.15625-0.298848 0.15625-0.449219 0-0.607327-1.579574-3.491026-2.136719-3.900391-0.279363-0.205263-0.487233-0.283804-0.878906-0.287109z" style="fill:#ffffff;opacity:.2"/>
 <path d="m36.32 10.196-1.351 2.3417a18 18 0 0 1 0.347 0.397l1.014-1.754c0.184-0.3186 0.158-0.6872-0.01-0.9847zm-32.295 15.117a18 18 0 0 0 8.9746 16.276 18 18 0 0 0 24.588 -6.588 18 18 0 0 0 2.381 -9.307 18 18 0 0 1 -2.381 8.307 18 18 0 0 1 -24.588 6.588 18 18 0 0 1 -8.9746 -15.276z" opacity=".2"/>
 <path d="m28.658 4.6855c-0.387-0.0484-0.78 0.1344-0.988 0.4942l-1.359 2.3535a18 18 0 0 0 -19.899 8.4668 18 18 0 0 0 -2.3866 9.312 18 18 0 0 1 2.3867 -8.312 18 18 0 0 1 19.899 -8.4668l1.359-2.3535c0.277-0.4798 0.885-0.6442 1.365-0.3672l6.93 4c0.161 0.0932 0.27 0.2315 0.355 0.3825l0.01-0.015c0.277-0.4801 0.115-1.0905-0.365-1.3675l-6.93-4c-0.12-0.0693-0.248-0.1108-0.377-0.127zm6.658 8.2485l-0.347 0.603a18 18 0 0 1 5 12.156 18 18 0 0 0 -4.653 -12.759z" fill="#fff" opacity=".1"/>
</svg>

<svg xmlns="http://www.w3.org/2000/svg" width="48" height="48" version="1">
 <rect style="fill:#ffd38d" width="2" height="6" x="30.74" y="-15.56" rx=".262" ry=".267" transform="rotate(30)"/>
 <path fill="#4f4f4f" d="m29.036 4.8135c-0.48-0.277-1.089-0.1138-1.366 0.366l-1.36 2.3545a18 18 0 0 0 -19.898 8.466 18 18 0 0 0 6.588 24.588 18 18 0 0 0 24.588 -6.588 18 18 0 0 0 -2.619 -21.463l1.3613-2.3579c0.277-0.47978 0.11375-1.089-0.36603-1.366l-6.9282-4z"/>
 <path style="opacity:0.2" d="m 20.324219,13.000686 c -0.254119,-0.0018 -0.485085,0.0056 -0.6875,0.02344 -1.904699,0.166976 -4.388331,1.841065 -6.494141,4.376953 -2.035559,2.451302 -2.622251,4.409327 -1.753906,5.851562 0.977893,1.624199 2.108522,2.546257 3.6875,3.011719 1.350806,0.398195 1.755025,0.640669 2.912109,1.74414 1.867711,1.78118 2.510634,1.981497 6.4375,1.992188 1.658712,0.0045 3.65641,-0.06201 4.439453,-0.146484 1.157745,-0.12489 1.645324,-0.271998 2.601563,-0.78711 2.536611,-1.366435 2.946326,-2.293618 2.199219,-4.970703 -0.233005,-0.834928 -0.614242,-2.60012 -0.845704,-3.921875 -0.231461,-1.321757 -0.522281,-2.607336 -0.648437,-2.857422 -0.561452,-1.113005 -2.367862,-2.18502 -5.480469,-3.251953 -1.705844,-0.584727 -4.588365,-1.052 -6.367187,-1.064453 z m -1.060547,5 c 1.394812,0.06628 1.708473,1.447767 1.701172,2.628906 0,1.667876 -0.21345,2.311582 -0.976563,2.949219 -0.569956,0.476244 -1.962124,0.573363 -2.378906,0.166016 -0.435509,-0.425641 -0.630859,-1.221774 -0.630859,-2.574219 0,-2.03678 0.816354,-3.169321 2.285156,-3.169922 z m 7.75,0 c 0.38795,-0.0063 0.800412,0.10843 1.296875,0.341797 0.512455,0.240889 1.088026,0.629659 1.279297,0.863281 0.456189,0.557206 0.460378,1.812633 0.0098,3.208984 -0.680031,2.107373 -2.035358,2.955514 -3.896484,2.4375 -0.716176,-0.199331 -1.560677,-1.144978 -1.712891,-1.919921 -0.245961,-1.252169 0.848227,-3.901937 1.878907,-4.550782 0.393787,-0.247878 0.756578,-0.374536 1.144531,-0.380859 z m -12.427734,10 c -0.588792,-0.0031 -1.21523,0.182982 -1.816407,0.5625 -0.736814,0.465142 -2.174709,2.083241 -2.55664,2.878906 -0.7227433,1.505667 0.478198,3.830519 2.279297,4.41211 0.633547,0.204576 0.643278,0.204664 1.216796,-0.05859 0.681832,-0.312984 1.014908,-0.73437 2.197266,-2.771484 0.798714,-1.376112 1.012633,-1.891446 1.070312,-2.591797 0.06526,-0.792358 0.02329,-0.932242 -0.439453,-1.5 -0.499744,-0.613177 -1.194153,-0.927655 -1.951171,-0.931641 z m 5.068359,4 c -1.455588,0 -2.49246,0.976313 -3.166016,2.978516 -0.583786,1.735384 -0.648972,3.20866 -0.166015,3.724609 0.841237,0.898696 3.957554,1.624214 4.908203,1.142578 0.396847,-0.201063 0.520446,-0.50003 0.708984,-1.71875 0.180477,-1.166606 -0.06971,-3.771749 -0.458984,-4.777344 -0.347142,-0.896706 -0.960034,-1.349609 -1.826172,-1.349609 z m 6.330078,0 c -0.130557,-0.001 -0.282065,0.0057 -0.462891,0.01953 -1.078739,0.08235 -1.661053,0.450009 -2.18164,1.375 -0.347068,0.616654 -0.380116,0.842234 -0.308594,2.091797 0.08925,1.558686 0.331154,2.358737 0.751953,2.47461 0.451983,0.124454 2.481382,-0.06016 3.373047,-0.306641 C 28.252755,37.351915 29,36.75704 29,36.188186 29,35.580859 27.420426,32.69716 26.863281,32.287795 26.583918,32.082532 26.376048,32.003991 25.984375,32.000686 Z"/>
 <path style="fill:#cbcbcb" d="M 20.324219 12 C 20.0701 11.9982 19.839134 12.005597 19.636719 12.023438 C 17.73202 12.190414 15.248388 13.864503 13.142578 16.400391 C 11.107019 18.851693 10.520327 20.809718 11.388672 22.251953 C 12.366565 23.876152 13.497194 24.79821 15.076172 25.263672 C 16.426978 25.661867 16.831197 25.904341 17.988281 27.007812 C 19.855992 28.788992 20.498915 28.989309 24.425781 29 C 26.084493 29.0045 28.082191 28.93799 28.865234 28.853516 C 30.022979 28.728626 30.510558 28.581518 31.466797 28.066406 C 34.003408 26.699971 34.413123 25.772788 33.666016 23.095703 C 33.433011 22.260775 33.051774 20.495583 32.820312 19.173828 C 32.588851 17.852071 32.298031 16.566492 32.171875 16.316406 C 31.610423 15.203401 29.804013 14.131386 26.691406 13.064453 C 24.985562 12.479726 22.103041 12.012453 20.324219 12 z M 19.263672 17 C 20.658484 17.06628 20.972145 18.447767 20.964844 19.628906 C 20.964844 21.296782 20.751394 21.940488 19.988281 22.578125 C 19.418325 23.054369 18.026157 23.151488 17.609375 22.744141 C 17.173866 22.3185 16.978516 21.522367 16.978516 20.169922 C 16.978516 18.133142 17.79487 17.000601 19.263672 17 z M 27.013672 17 C 27.401622 16.9937 27.814084 17.10843 28.310547 17.341797 C 28.823002 17.582686 29.398573 17.971456 29.589844 18.205078 C 30.046033 18.762284 30.050222 20.017711 29.599609 21.414062 C 28.919578 23.521435 27.564251 24.369576 25.703125 23.851562 C 24.986949 23.652231 24.142448 22.706584 23.990234 21.931641 C 23.744273 20.679472 24.838461 18.029704 25.869141 17.380859 C 26.262928 17.132981 26.625719 17.006323 27.013672 17 z M 14.585938 27 C 13.997146 26.9969 13.370708 27.182982 12.769531 27.5625 C 12.032717 28.027642 10.594822 29.645741 10.212891 30.441406 C 9.4901477 31.947073 10.691089 34.271925 12.492188 34.853516 C 13.125735 35.058092 13.135466 35.05818 13.708984 34.794922 C 14.390816 34.481938 14.723892 34.060552 15.90625 32.023438 C 16.704964 30.647326 16.918883 30.131992 16.976562 29.431641 C 17.041822 28.639283 16.999856 28.499399 16.537109 27.931641 C 16.037365 27.318464 15.342956 27.003986 14.585938 27 z M 19.654297 31 C 18.198709 31 17.161837 31.976313 16.488281 33.978516 C 15.904495 35.7139 15.839309 37.187176 16.322266 37.703125 C 17.163503 38.601821 20.27982 39.327339 21.230469 38.845703 C 21.627316 38.64464 21.750915 38.345673 21.939453 37.126953 C 22.11993 35.960347 21.869745 33.355204 21.480469 32.349609 C 21.133327 31.452903 20.520435 31 19.654297 31 z M 25.984375 31 C 25.853818 30.999 25.70231 31.005651 25.521484 31.019531 C 24.442745 31.101881 23.860431 31.46954 23.339844 32.394531 C 22.992776 33.011185 22.959728 33.236765 23.03125 34.486328 C 23.1205 36.045014 23.362404 36.845065 23.783203 36.960938 C 24.235186 37.085392 26.264585 36.900776 27.15625 36.654297 C 28.252755 36.351229 29 35.756354 29 35.1875 C 29 34.580173 27.420426 31.696474 26.863281 31.287109 C 26.583918 31.081846 26.376048 31.003305 25.984375 31 z"/>
 <path style="fill:#ffffff;opacity:0.2" d="M 20.324219 12 C 20.0701 11.9982 19.839134 12.005597 19.636719 12.023438 C 17.73202 12.190414 15.248388 13.864503 13.142578 16.400391 C 11.526729 18.346261 10.839531 19.976116 11.052734 21.289062 C 11.225281 20.174668 11.915275 18.878358 13.142578 17.400391 C 15.248388 14.864503 17.73202 13.190414 19.636719 13.023438 C 19.839134 13.005598 20.0701 12.9982 20.324219 13 C 22.103041 13.012453 24.985562 13.479726 26.691406 14.064453 C 29.804013 15.131386 31.610423 16.203401 32.171875 17.316406 C 32.298031 17.566492 32.588851 18.852071 32.820312 20.173828 C 33.051775 21.495583 33.433011 23.260775 33.666016 24.095703 C 33.81851 24.642131 33.909178 25.10225 33.957031 25.521484 C 34.064538 24.88671 33.952035 24.120587 33.666016 23.095703 C 33.433011 22.260775 33.051775 20.495583 32.820312 19.173828 C 32.588851 17.852071 32.298031 16.566492 32.171875 16.316406 C 31.610423 15.203401 29.804013 14.131386 26.691406 13.064453 C 24.985562 12.479726 22.103041 12.012453 20.324219 12 z M 29.882812 20.054688 C 29.835621 20.480675 29.755376 20.931377 29.599609 21.414062 C 28.919578 23.521435 27.564251 24.369576 25.703125 23.851562 C 25.006422 23.657651 24.193873 22.758337 24.009766 21.996094 C 23.957989 22.345762 23.939215 22.671907 23.990234 22.931641 C 24.142448 23.706584 24.986949 24.652231 25.703125 24.851562 C 27.564251 25.369576 28.919578 24.521435 29.599609 22.414062 C 29.891212 21.51038 29.971404 20.689262 29.882812 20.054688 z M 20.9375 20.267578 C 20.877152 21.447474 20.637963 22.035268 19.988281 22.578125 C 19.418325 23.054369 18.026157 23.151488 17.609375 22.744141 C 17.240548 22.383671 17.053505 21.7333 17.001953 20.728516 C 16.992456 20.873757 16.978516 21.013977 16.978516 21.169922 C 16.978516 22.522367 17.173866 23.3185 17.609375 23.744141 C 18.026157 24.151488 19.418325 24.054369 19.988281 23.578125 C 20.751394 22.940488 20.964844 22.296782 20.964844 20.628906 C 20.965578 20.510135 20.94403 20.38886 20.9375 20.267578 z M 14.585938 27 C 13.997146 26.9969 13.370708 27.182982 12.769531 27.5625 C 12.032717 28.027642 10.594822 29.645741 10.212891 30.441406 C 9.9975755 30.889965 9.969393 31.411284 10.060547 31.9375 C 10.095606 31.767049 10.138126 31.597162 10.212891 31.441406 C 10.594822 30.645741 12.032717 29.027642 12.769531 28.5625 C 13.370708 28.182982 13.997146 27.9969 14.585938 28 C 15.342956 28.003986 16.037365 28.318464 16.537109 28.931641 C 16.765469 29.211825 16.890075 29.388225 16.951172 29.589844 C 16.957766 29.537026 16.972068 29.486211 16.976562 29.431641 C 17.041822 28.639283 16.999856 28.499399 16.537109 27.931641 C 16.037365 27.318464 15.342955 27.003986 14.585938 27 z M 19.654297 31 C 18.198709 31 17.161837 31.976313 16.488281 33.978516 C 16.075512 35.20553 15.926769 36.294473 16.042969 37.013672 C 16.098589 36.416179 16.234979 35.73149 16.488281 34.978516 C 17.161837 32.976313 18.198709 32 19.654297 32 C 20.520435 32 21.133327 32.452903 21.480469 33.349609 C 21.736894 34.012023 21.918327 35.354933 21.970703 36.537109 C 22.031325 35.240106 21.81745 33.220114 21.480469 32.349609 C 21.133327 31.452903 20.520435 31 19.654297 31 z M 25.984375 31 C 25.853818 30.999 25.70231 31.005651 25.521484 31.019531 C 24.442745 31.101881 23.860431 31.46954 23.339844 32.394531 C 23.013751 32.973917 22.968832 33.238171 23.023438 34.300781 C 23.059621 33.965714 23.149935 33.731951 23.339844 33.394531 C 23.860431 32.46954 24.442745 32.101881 25.521484 32.019531 C 25.70231 32.005701 25.853818 31.999 25.984375 32 C 26.376048 32.003305 26.583918 32.081846 26.863281 32.287109 C 27.318084 32.621278 28.441712 34.58913 28.84375 35.636719 C 28.940827 35.488582 29 35.337871 29 35.1875 C 29 34.580173 27.420426 31.696474 26.863281 31.287109 C 26.583918 31.081846 26.376048 31.003305 25.984375 31 z"/>
 <path opacity=".2" d="m36.32 10.196-1.351 2.3417a18 18 0 0 1 0.347 0.397l1.014-1.754c0.184-0.3186 0.158-0.6872-0.01-0.9847zm-32.295 15.117a18 18 0 0 0 8.9746 16.276 18 18 0 0 0 24.588 -6.588 18 18 0 0 0 2.381 -9.307 18 18 0 0 1 -2.381 8.307 18 18 0 0 1 -24.588 6.588 18 18 0 0 1 -8.9746 -15.276z"/>
 <path fill="#fff" opacity=".1" d="m28.658 4.6855c-0.387-0.0484-0.78 0.1344-0.988 0.4942l-1.359 2.3535a18 18 0 0 0 -19.899 8.4668 18 18 0 0 0 -2.3866 9.312 18 18 0 0 1 2.3867 -8.312 18 18 0 0 1 19.899 -8.4668l1.359-2.3535c0.277-0.4798 0.885-0.6442 1.365-0.3672l6.93 4c0.161 0.0932 0.27 0.2315 0.355 0.3825l0.01-0.015c0.277-0.4801 0.115-1.0905-0.365-1.3675l-6.93-4c-0.12-0.0693-0.248-0.1108-0.377-0.127zm6.658 8.2485l-0.347 0.603a18 18 0 0 1 5 12.156 18 18 0 0 0 -4.653 -12.759z"/>
</svg>
